X:1
T:Ach Gott vom Himmel 2vv CXLV
T:Michael Praetorius
T:Ach Gott vom Himmel 2vv CXLV
C:Michael Praetorius
%%score [ 1 2 ]
L:1/8
Q:1/4=180
M:4/2
K:F
V:1 treble nm="Soprano" snm="S"
V:2 treble-8 nm="Tenor" snm="T"
V:1
 A8 B4 A4 | G4 d4 d4 B4 | A8 z4 c4 | B4 A4 G4 c4 | B4 A2 G2 A8 | G8 z4 A4 | B8 A8 | %7
w: Ach Gott vom|Him- mel sieh dar-|ein und|laß dich des er-|bar- * * *|men wie|we- nig|
 G4 d4 d2 c2 B4 | A8 z4 c4 | B4 A4 G4 z2 c2 | B4 A4 G4 c4 | B4 A6 G2 G4- | G4 ^F4 G8 | %13
w: sind der Hei- li- gen|dein ver-|las- sen sind ver-|las- sen sind wir|Ar- * * *|* * men,|
 z2 G2 F4 E4 D2 G2 | F4 E4 D4 z2 G2 | B4 A4 G4 c4 | B8 A8 | G8 z4 G4 | A2 F2 E4 D2 F4 G2 | %19
w: ver- las- sen sind ver-|las- sen sind ver-|las- sen sind wir|Ar- *|men, dein|Wort man läßt nicht ha- ben|
 A4 B4 c4 z2 G2 | A2 F2 E2 D2 F6 G2 | A8 z4 F4 | G2 B2 A4 B2 G4 ^F2 | G4 z2 F2 G8 | %24
w: wahr _ _ dein|Wort man läßt nicht ha- ben|wahr der|Glaub ist auch ver- lo- schen|gar der Glaub|
 c4 A4 B2 G4 ^F2 | G4 z2 G2 d4 B4 | c8 d8 | c8 B8 | A8 z2 G2 d4 | B4 c6 d2 c2 B2 | A4 G2 c4 B2 c4 | %31
w: ist auch ver- lo- schen|gar bei al- len|Men- schen-|kin- *|dern, bei al-|len Men- schen- kin- *|dern, bei al- len Men-|
 d6 c4 BA B4 | A4 z2 G2 d4 B4 | z2 A2 d6 c2 B2 A2 | G2 F2 G2 E2 F2 G2 A2 B2 | c4 B2 A2 G4 A4 | %36
w: schen- kin- * * *|dern, bei al- len|bei al- * * *|* * * len Men- * * *|* * * * schen-|
 A4 G2 F2 G8 | A16 |] %38
w: kin- * * *|dern.|
V:2
 z8 d8 | _e4 d4 B8 | f4 f8 _e4 | d4 z2 f2 _e8 | d8 c4 f4 | _e4 d2 c2 d2 A4 d2 | B2 A2 G4 z4 A4 | %7
w: Ach|Gott vom Him-|mel sieh dar-|ein und laß|dich des er-|bar- * * * men wie|we- nig sind wie|
 B6 A2 G4 d4- | d2 d4 c2 B4 A4 | z4 c4 B4 A4 | G4 z2 c2 B4 A4 | G4 c4 B8 | A8 G4 z2 c2 | %13
w: we- nig sind der|_ Hei- li- gen dein|ver- las- sen|sind ver- las- sen|sind wir Ar-|* men, ver-|
 B4 A4 G2 c2 B4 | A4 G2 g2 f4 e4 | d6 c2 B4 A4 | G2 A2 B2 c2 d2 e2 ^f4 | g4 z2 c2 d4 B4 | %18
w: las- sen sind ver- las-|sen sind ver- las- sen|sind wir Ar- *||men, dein Wort man|
 A6 G2 B8 | c2 d4 g2 a2 f2 e4 | d4 c2 B2 B4 A2 G2 | F4 z2 F2 G2 B2 A4 | B2 G4 ^F2 G3 G d4 | %23
w: läßt nicht ha-|ben wahr dein Wort man läßt|nicht ha- ben wahr _ _|_ der Glaub ist auch|ver- lo- schen gar bei al-|
 B2 c4 d2 c4 B4 | A4 z2 F2 G2 B2 A4 | B4 G6 ^F2 G4 | z2 F2 c2 A2 B2 c2 d2 e2 | f4 e4 d4 g4- | %28
w: len Men- schen- kin- *|dern, der Glaub ist auch|ver- lo- schen gar|bei al- len Men- * * *|* * schen- kin-|
 g2 ^fe f4 g4 z2 d2 | g4 _e4 f6 g2 | f4 _e4 d4 z2 c2 | g2 f2 g2 a2 g8 | f4 e4 d6 G2 | d8 B8 | %34
w: * * * * dern, bei|al- len Men- schen-|kin- * dern, bei|al- len Men- schen- kin-|* * dern, bei|al- len|
 c8 d8 | c16 | B16 | A16 |] %38
w: Men- schen-|kin-||dern.|

